X:1
T:Title
L:1/8
M:4/4
K:F
V:1 treble nm="Grand Piano"
V:1
 z4 z2 C>C | F2 G2 A A3 | z4 z2 C>C | A2 AA B2 A2 | z4 z2 F>F | G2 G2 A2 G2 | z4 z2 EF | GGFE F4- | %8
[M:3/4] F6 |[M:1/4] F2 |[M:4/4] G2 A2 B4 | B2 B2 d4 | c2 =B2 c4 | c6 cc | B2 A2 B4 | B6 BB | %16
 A2 G2 A4 | A6 AA | G2 F2 G4 | G6 GG | A2 B2 c4 | c6 z2 |[M:1/4] C>C |[M:4/4] F2 G2 A A3 | %24
 z4 z2 C>C | A2 AA B2 A2 | z4 z2 F>F | G2 G2 A2 G2 | z4 z2 EF | GGFE F4- |[M:7/4] F6 z2 z2 z4 |] %31

